src/assets/icons/laptop.svg

<svg width="44" height="45" viewBox="0 0 44 45" fill="none" xmlns="http://www.w3.org/2000/svg">
<path d="M4.3037 8.31335C4.3037 8.31335 40.8911 7.94888 40.8911 8.31335V33.532H27.8449L27.3262 34.655H17.9979L17.3484 33.6255H4.29749L4.3037 8.31335Z" stroke="#1A2578" stroke-width="1.5" stroke-linecap="round" stroke-linejoin="round"/>
<path d="M38.483 10.6699H6.66797V31.2205H38.483V10.6699Z" stroke="#BF0830" stroke-width="1.5" stroke-linecap="round" stroke-linejoin="round"/>
<path d="M4.30364 33.627H2V36.7H43V33.627H40.891" stroke="#1A2578" stroke-width="1.5" stroke-linecap="round" stroke-linejoin="round"/>
</svg>

<svg width="44" height="45" fill="none" xmlns="http://www.w3.org/2000/svg"><path d="M4.304 8.313s36.587-.364 36.587 0v25.219H27.845l-.519 1.123h-9.328l-.65-1.03H4.298l.006-25.312Z" stroke="#1A2578" stroke-width="1.5" stroke-linecap="round" stroke-linejoin="round"/><path d="M38.483 10.67H6.668v20.55h31.815V10.67Z" stroke="#BF0830" stroke-width="1.5" stroke-linecap="round" stroke-linejoin="round"/><path d="M4.304 33.627H2V36.7h41v-3.073h-2.109" stroke="#1A2578" stroke-width="1.5" stroke-linecap="round" stroke-linejoin="round"/></svg>
